X:259
T:New German Waltz
O:no 259 william Clarke of Feltwell
M:3/8
L:1/8
K:G
d/c/|BBA|G3/2(g/f/e/)|ddc|d2d/c/|BBA|G2g|(gf).e|d2:||:/
d|(ad).d|(bd).d|(dc').b|(ba).f|(gf).e|dfg|agf|g2:||:/
B/c/|dBd|gfe|edd|d2B/d/|dcc|c2A/c/|cBB|B2B/c/|/
dcd|gfe|edd|d2B/d/|dcc|c2A/F/|Ggg|g2:|

